icons/gql-codegen.svg

<!--
  - The MIT License (MIT)
  -
  - Copyright (c) 2015-2024 Elior "Mallowigi" Boukhobza
  -
  - Permission is hereby granted, free of charge, to any person obtaining a copy
  - of this software and associated documentation files (the "Software"), to deal
  - in the Software without restriction, including without limitation the rights
  - to use, copy, modify, merge, publish, distribute, sublicense, and/or sell
  - copies of the Software, and to permit persons to whom the Software is
  - furnished to do so, subject to the following conditions:
  -
  - The above copyright notice and this permission notice shall be included in all
  - copies or substantial portions of the Software.
  -
  - THE SOFTWARE IS PROVIDED "AS IS", WITHOUT WARRANTY OF ANY KIND, EXPRESS OR
  - IMPLIED, INCLUDING BUT NOT LIMITED TO THE WARRANTIES OF MERCHANTABILITY,
  - FITNESS FOR A PARTICULAR PURPOSE AND NONINFRINGEMENT. IN NO EVENT SHALL THE
  - AUTHORS OR COPYRIGHT HOLDERS BE LIABLE FOR ANY CLAIM, DAMAGES OR OTHER
  - LIABILITY, WHETHER IN AN ACTION OF CONTRACT, TORT OR OTHERWISE, ARISING FROM,
  - OUT OF OR IN CONNECTION WITH THE SOFTWARE OR THE USE OR OTHER DEALINGS IN THE
  - SOFTWARE.
  -
  -->

<svg version="1.1" xmlns="http://www.w3.org/2000/svg" viewBox="0 0 393 512" width="16px" height="16px">
  <path fill="#e536ab" data-iconColor="GraphQL Codegen"
        d="M208.2882385,180.7523804v-37.1019897c16.9527435,7.2308502,31.750351,7.0070496,47.8944702,0.0001678v37.1018219C256.1827087,195.5445099,208.2882385,195.5445099,208.2882385,180.7523804z M200.6182251,180.7523804v-43.6952667l-18.727951-42.9862213L71.310318,155.5388489v178.1852722L0,369.379303V422.86203L160.4482269,512L393,387.2069092V155.5388489L282.2070923,94.4781876l-18.3543701,42.5790939v43.6950989C263.8527222,206.2050781,200.6182251,206.2050781,200.6182251,180.7523804z M206.0970001,129.3542938l-38.3970032-85.7327271c-16.662262-23.1417675,9.2656555-42.6718826,60.449585-43.5989037c32.6804352-0.5918921,85.5269012,10.3553505,70.984726,39.2220535l-40.7603455,90.1184235C250.1311646,144.2089386,213.8867798,146.5531006,206.0970001,129.3542938z M230.5892944,6.1268468c-30.6837006,0-61.6208801,10.7962837-63.386734,24.0891037c7.4293671,31.6465263,121.4720001,32.3546257,127.9510345,0C295.328186,14.9795923,261.6522827,6.1268468,230.5892944,6.1268468z M247.7534332,359.6030579l-0.235733-44.0796204c-23.5083313,1.3904419-6.8635254-42.2151184,13.3181458-33.000824l31.2329102-33.4722137c-9.0343628-25.6089172,30.4467773-42.1926727,29.347168-13.6717682l30.6435852,5.7751312c17.9161072-27.0138702,39.3225708,1.5280609,14.8504333,20.6255035l0.9428406,38.7759399c23.8197937-1.8385315,5.9974365,40.9350891-11.7860413,33.2365112L324.598114,371.506897c4.4061584,12.7695618-5.1511536,25.009491-14.3785095,28.2290955c-7.9104614,2.7601013-15.638855-1.2278137-13.4364319-15.8537903l-33.5900879-4.714386C245.0474701,408.2410278,222.5709991,378.6932983,247.7534332,359.6030579z M355.0060425,310.1018372l-43.2546387-58.4585724c-2.2393188,1.5322113-4.714386,2.7108002-7.0715942,3.1822357l-43.1367798,103.3632507c1.6500244,1.1785889,2.8286438,2.8286133,3.5357971,4.8322449l85.5664062-42.4296265C351.3307495,316.957489,352.8463135,313.4720459,355.0060425,310.1018372z M349.1130371,247.753891l-29.5828857-5.5394135c-0.6426697,1.5528412-1.5177612,3.0540466-2.7107849,4.4786987l43.0189209,58.10495c0.3535461-0.3535461,0.8250122-0.7071228,1.1785889-0.9428711l-0.9428711-39.1295166C350.6321716,266.0373535,346.2465515,257.1132812,349.1130371,247.753891z M254.3535156,312.6947632l0.2357483,43.7260742l42.4885559-102.3614044l-32.1168518,34.2383575C267.335907,297.3435669,261.9765015,307.8136597,254.3535156,312.6947632z M319.0587463,366.5567932l31.9400635-38.2455444l-85.0949402,42.2527771l-0.3535767,1.7679138l33.5901184,4.7144165C304.4224243,368.4798279,312.7972107,364.1313171,319.0587463,366.5567932z M193.2075195,418.6993103v7.963562l-49.1508179,25.5993652L25.7792912,387.1055908v-7.9635925l49.1508102-25.5993347L193.2075195,418.6993103z M91.4907455,319.3354187V191.8274841l119.2728653,67.1475525v127.5079041L91.4907455,319.3354187z"/>
</svg>

<svg xmlns="http://www.w3.org/2000/svg" viewBox="0 0 393 512"><path fill="#e536ab" d="M208.288 180.752V143.65c16.953 7.231 31.75 7.007 47.895 0v37.102c0 14.793-47.895 14.793-47.895 0m-7.67 0v-43.695L181.89 94.071 71.31 155.539v178.185L0 369.38v53.483L160.448 512 393 387.207V155.539l-110.793-61.06-18.354 42.578v43.695c0 25.453-63.235 25.453-63.235 0m5.479-51.398L167.7 43.622C151.038 20.48 176.966.95 228.15.022c32.68-.591 85.526 10.356 70.984 39.223l-40.76 90.118c-8.243 14.846-44.487 17.19-52.277-.009M230.589 6.127c-30.683 0-61.62 10.796-63.386 24.089 7.429 31.646 121.472 32.355 127.95 0 .175-15.236-33.5-24.09-64.564-24.09m17.164 353.476-.235-44.08c-23.509 1.39-6.864-42.215 13.318-33l31.233-33.473c-9.035-25.609 30.447-42.192 29.347-13.671l30.644 5.775c17.916-27.014 39.322 1.528 14.85 20.625l.943 38.776c23.82-1.838 5.997 40.935-11.786 33.237l-31.469 37.715c4.406 12.77-5.151 25.01-14.378 28.229-7.91 2.76-15.64-1.228-13.437-15.854l-33.59-4.714c-18.146 29.073-40.622-.475-15.44-19.565m107.253-49.501-43.255-58.459c-2.239 1.532-4.714 2.711-7.071 3.183l-43.137 103.363c1.65 1.178 2.829 2.828 3.536 4.832l85.566-42.43c.686-3.634 2.201-7.119 4.361-10.49m-5.893-62.348-29.583-5.54a17.1 17.1 0 0 1-2.71 4.48l43.018 58.104a8.3 8.3 0 0 1 1.179-.943l-.943-39.13c-9.442 1.312-13.827-7.612-10.961-16.971m-94.76 64.94.236 43.727 42.489-102.362-32.117 34.239c2.375 9.046-2.984 19.516-10.607 24.397m64.706 53.863L351 328.31l-85.095 42.253-.354 1.768 33.59 4.714c5.282-8.566 13.657-12.915 19.919-10.49m-125.851 52.142v7.964l-49.151 25.6L25.78 387.104v-7.964l49.151-25.6zM91.49 319.335V191.827l119.273 67.148v127.508z" data-iconColor="GraphQL Codegen"/></svg>
